www/assets/icons/remove_road.svg

<svg xmlns="http://www.w3.org/2000/svg" width="24" height="24" viewBox="0 0 24 24" fill='currentColor'><path d="M18.75 3h-2v9h2zm-14 0h-2v16h2zm7 0h-2v4h2zm0 6h-2v4h2zm0 6h-2v4h2zm9.5.41L19.84 14l-2.09 2.09L15.66 14l-1.41 1.41 2.09 2.09-2.09 2.09L15.66 21l2.09-2.09L19.84 21l1.41-1.41-2.09-2.09z"/></svg>

<svg width="24" height="24" viewBox="0 0 24 24" xmlns="http://www.w3.org/2000/svg" fill='currentColor'><path d="M18.75 3H16.75V12H18.75V3Z"/><path d="M4.75 3H2.75V19H4.75V3Z"/><path d="M11.75 3H9.75V7H11.75V3Z"/><path d="M11.75 9H9.75V13H11.75V9Z"/><path d="M11.75 15H9.75V19H11.75V15Z"/><path d="M21.25 15.41L19.84 14L17.75 16.09L15.66 14L14.25 15.41L16.34 17.5L14.25 19.59L15.66 21L17.75 18.91L19.84 21L21.25 19.59L19.16 17.5L21.25 15.41Z"/></svg>
